packages/flutter/assets/icons/id.svg

<?xml version="1.0" encoding="UTF-8"?>
<svg width="24px" height="24px" viewBox="0 0 24 24" version="1.1" xmlns="http://www.w3.org/2000/svg" xmlns:xlink="http://www.w3.org/1999/xlink">
    <title>id</title>
    <g id="id" stroke="none" stroke-width="1" fill="none" fill-rule="evenodd">
        <path d="M17,2 L7,2 C6.44771525,2 6,2.44771525 6,3 L6,21 C6,21.5522847 6.44771525,22 7,22 L17,22 C17.5522847,22 18,21.5522847 18,21 L18,3 C18,2.44771525 17.5522847,2 17,2 Z M17,3 L17,21 L7,21 L7,3 L17,3 Z M14,13 C14.5522847,13 15,13.4477153 15,14 L15,14 L15,19 C15,19.5522847 14.5522847,20 14,20 L14,20 L10,20 C9.44771525,20 9,19.5522847 9,19 L9,19 L9,14 C9,13.4477153 9.44771525,13 10,13 L10,13 Z M14,14 L10,14 L10,19 L14,19 L14,14 Z M12,4 C13.1045695,4 14,4.8954305 14,6 C14,6.70114619 13.639203,7.31802372 13.0931405,7.67510103 C14.4909353,8.13336655 15.5,9.44884343 15.5,11 C15.5,11.2761424 15.2761424,11.5 15,11.5 C14.7238576,11.5 14.5,11.2761424 14.5,11 C14.5,9.61928813 13.3807119,8.5 12,8.5 C10.6192881,8.5 9.5,9.61928813 9.5,11 C9.5,11.2761424 9.27614237,11.5 9,11.5 C8.72385763,11.5 8.5,11.2761424 8.5,11 C8.5,9.44884343 9.5090647,8.13336655 10.9065819,7.67418153 C10.360797,7.31802372 10,6.70114619 10,6 C10,4.8954305 10.8954305,4 12,4 Z M12,5 C11.4477153,5 11,5.44771525 11,6 C11,6.55228475 11.4477153,7 12,7 C12.5522847,7 13,6.55228475 13,6 C13,5.44771525 12.5522847,5 12,5 Z" id="Rectangle" fill="#1F252E"></path>
    </g>
</svg>

<svg xmlns="http://www.w3.org/2000/svg" width="24" height="24" viewBox="0 0 24 24"><path fill-rule="evenodd" d="M17 2H7a1 1 0 0 0-1 1v18a1 1 0 0 0 1 1h10a1 1 0 0 0 1-1V3a1 1 0 0 0-1-1zm0 1v18H7V3h10zm-3 10a1 1 0 0 1 1 1v5a1 1 0 0 1-1 1h-4a1 1 0 0 1-1-1v-5a1 1 0 0 1 1-1zm0 1h-4v5h4v-5zM12 4a2 2 0 0 1 1.093 3.675A3.5 3.5 0 0 1 15.5 11a.5.5 0 1 1-1 0 2.5 2.5 0 1 0-5 0 .5.5 0 1 1-1 0 3.502 3.502 0 0 1 2.407-3.326A2 2 0 0 1 12 4zm0 1a1 1 0 1 0 0 2 1 1 0 0 0 0-2z"/></svg>
